X:1
T:Oh, girl of the golden tresses
M:C
L:1/8
R:Air
N:"Andante"
S:Stanford/Petrie (1905)
Z:AK/Fiddler's Companion
K:Gdor
D | DGA^F G2 AF | GAcd f2 ge | fedc Ac GA | F4 D2 (D2C2) |
DGA^F G2 AF | GA cd/e/ f3g | fedc Ac A>G | (G4 G3) ||
d | d^cde f2 fg | fdcA c3 d/e/ | fe dc Ac AG | F4 D3C |
DGA^F G2 AF | GAcd f3g | fedc A<c A>G | (G4 G3) ||

